X:2185
L:1/8
M:4/4
K:C
[M:4/4][K:G] d beg ee .f ua eaa e ud E e!p!ace"^K:G""^K:D"[Q:1/8=180]"^A dorian" .efed cdef | 
 gedB AGEF | G2 AG BGAG | EFGA BA A2 | efed cdef | gedB AGEF | G2 AG BGAG | DEGA BA A2 :| 
 eaab agef | gabg agef | gage d2 ef | gded cd e2 | eaab agef | gabg agef | gfge d2 ef | 
 gfgB BA A2 :|

